X: 11
T: The Swallow's Tail
R: reel
M: 4/4
L: 1/8
K: Ador
(3Bcd|:eecA e~A3 | (3Bcd ef gedB | (3GFG (3BAG dGBG |
(3Bcd ef gbag | eecA e~A3 | (3Bcd ef ~g3b |
afge dBGB | A2 (3.A.c.A A2 (3Bcd :|: e~a3 aged | (3Bcd ef (3.g.f.e dB |
GG (3GFG DG (3BAG | (3Bcd ef g2 fg | agbg aged |
cdef gbbg | af (3.g.f.e dBGB |1 A2 (3.A.c.A A2 (3Bcd :|2 A2 (3.A.c.A A2 |


Tune 105	Setting 26272

